resources/icons/20px/layout-top-row-three-tiles.svg

<svg width="20" height="20" viewBox="0 0 20 20" fill="none" xmlns="http://www.w3.org/2000/svg">
<path d="M0 12C0 11.4477 0.447715 11 1 11H19C19.5523 11 20 11.4477 20 12V19C20 19.5523 19.5523 20 19 20H1C0.447716 20 0 19.5523 0 19V12Z" fill="black"/>
<path d="M0 1C0 0.447715 0.447715 0 1 0H4C4.55228 0 5 0.447715 5 1V8C5 8.55228 4.55228 9 4 9H1C0.447715 9 0 8.55228 0 8V1Z" fill="black"/>
<path d="M7 1C7 0.447715 7.44772 0 8 0H12C12.5523 0 13 0.447715 13 1V8C13 8.55228 12.5523 9 12 9H8C7.44772 9 7 8.55228 7 8V1Z" fill="black"/>
<path d="M15 1C15 0.447715 15.4477 0 16 0H19C19.5523 0 20 0.447715 20 1V8C20 8.55228 19.5523 9 19 9H16C15.4477 9 15 8.55228 15 8V1Z" fill="black"/>
</svg>

<svg xmlns="http://www.w3.org/2000/svg" viewBox="0 0 20 20">
  <path d="M0 12a1 1 0 0 1 1-1h18a1 1 0 0 1 1 1v7a1 1 0 0 1-1 1H1a1 1 0 0 1-1-1zM0 1a1 1 0 0 1 1-1h3a1 1 0 0 1 1 1v7a1 1 0 0 1-1 1H1a1 1 0 0 1-1-1zM7 1a1 1 0 0 1 1-1h4a1 1 0 0 1 1 1v7a1 1 0 0 1-1 1H8a1 1 0 0 1-1-1zM15 1a1 1 0 0 1 1-1h3a1 1 0 0 1 1 1v7a1 1 0 0 1-1 1h-3a1 1 0 0 1-1-1z"/>
</svg>
